svg/u1f969.svg

<svg viewBox="0 0 128 128" xmlns="http://www.w3.org/2000/svg">
  <path d="M121.03,21.75L4.47,62.94c0,0-0.43,9.23,0.57,16.89s2.41,11.78,2.41,11.78s3.83,17.46,26.12,26.12 s45.1-1.17,51.96-4.97c8.24-4.56,19-15.08,23.26-20.33c4.26-5.25,12.52-17.14,13.51-24.81c0.99-7.67,2.03-19.79,1.99-27.46 C124.22,28.8,121.03,21.75,121.03,21.75z" fill="#FEA8A6"/>
  <path d="M64.09,29.72c-6.67,1.56-27.97,3.97-33.08,5.39c-5.11,1.42-12.15,4.18-14.35,5.92 c-3.6,2.85-12.25,17.36-12.2,21.91c0.08,7.91,3.02,17.68,5.58,20.04c1.86,1.72,16.29,22.54,35.88,22.68 c19.59,0.14,62.75-29.39,64.59-31.94c1.85-2.56,8.25-14.8,10.03-22.53c1.57-6.83,3.56-21.51,0.19-30.42 c-2.59-6.86-8.71-13.19-12.88-14.02C99.6,5.12,94.9,6.72,93.62,7.15c-1.28,0.43-3.47,13.74-8.94,15.76 C76.59,25.89,64.09,29.72,64.09,29.72z" fill="#FED5B6"/>
  <path d="M89.19,22.6c5.82-3.44,6.43-15.97,6.43-15.97s-4.46,0.29-9.43,4.32S75.48,22.17,72.65,24.23 c-2.83,2.06-8.56,5.49-8.56,5.49S80.22,27.89,89.19,22.6z" fill="#DC0D28"/>
  <path d="M95.96,37.25c3.07,9.44,14.22,12.42,17.39,11.57c3.17-0.86,5.14-7.8,4.88-17.91 s-5.4-15.77-10.2-15.42c-4.11,0.29-9.86,4.31-12,10.45C94.85,29.39,94.7,33.37,95.96,37.25z" fill="#DC0D28"/>
  <path d="M77.19,34.94c1.33,1.33-2.31,5.23-0.26,11.31c2.06,6.08,5.48,7.8,5.23,9.6S67.68,75.64,57.66,79.41 s-37.83,2.51-42.93-11.65c-3.86-10.71,4.29-19.95,6.43-21.68c3.25-2.63,6.47-4.64,11.4-5.57c1.88-0.35,15.94-2.48,24.25-3.34 C65.11,36.31,75.65,33.4,77.19,34.94z" fill="#DC0D28"/>
  <path d="M53.54,42.22c0.7,3.25-8.83,6.43-16.19,11.82c-5.45,3.99-9.6,11.31-14.31,8.4s1.93-14.16,4.46-16.11 C30.49,44.02,52.77,38.62,53.54,42.22z" fill="#FF5F5D"/>
  <path d="M79.48,22.78c0.72,1.6,6-2.31,8.57-4.46c2.08-1.73,4.6-3.3,3.26-5.4c-1.54-2.4-4.28-0.34-6.94,2.48 C82.63,17.25,78.7,21.07,79.48,22.78z" fill="#FF5F5D"/>
  <path d="M40.09,89.69c3.98,1.26,2.59,15.21,5.57,15.08c3.45-0.14,0.93-11.84,4.1-14.66 c3.17-2.83,7.16-2.37,12.9-5.2c5.74-2.83,12.05-8.15,16.5-13.38c4.46-5.23,9.43-11.14,11.74-12.94c2.31-1.8,14.4-5.4,18.59-2.48 c4.2,2.91,2.66,15.25,2.66,15.25s-8.18,14.66-24.63,24.39s-25.81,13.59-45.83,11.3S9.66,82.58,9.66,82.58s7.72,3.29,16.45,4.72 S36.13,88.44,40.09,89.69z" fill="#DC0D28"/>
  <path d="M87.58,29.47c-4.94,3-9.34,8.6-7.1,16.11c2.24,7.51,13.86,12.07,21.51,4.75 c6.78-6.48,5.18-14.04,2.07-17.71C100.97,28.96,94.02,25.56,87.58,29.47z" fill="#FFFFFF"/>
  <path d="M97.94,32.83c-5.24-2.66-10.61,0.38-12.28,3.79c-1.66,3.41-1.45,8.2,2.51,11.04 c4.24,3.05,10.75,1.52,13.02-3.15S102.1,34.94,97.94,32.83z" fill="#FFA8A7"/>
</svg>

<svg viewBox="0 0 128 128" xmlns="http://www.w3.org/2000/svg">
  <defs/>
  <path d="M121.03,21.75 L4.47,62.94 C4.47,62.94 4.04,72.17 5.04,79.83 C6.04,87.49 7.45,91.61 7.45,91.61 C7.45,91.61 11.28,109.07 33.57,117.73 C55.86,126.39 78.67,116.56 85.53,112.76 C93.77,108.2 104.53,97.68 108.79,92.43 C113.05,87.18 121.31,75.29 122.3,67.62 C123.29,59.95 124.33,47.83 124.29,40.16 C124.22,28.8 121.03,21.75 121.03,21.75 Z" fill="#FEA8A6"/>
  <path d="M64.09,29.72 C57.42,31.28 36.12,33.69 31.01,35.11 C25.9,36.53 18.86,39.29 16.66,41.03 C13.06,43.88 4.41,58.39 4.46,62.94 C4.54,70.85 7.48,80.62 10.04,82.98 C11.9,84.7 26.33,105.52 45.92,105.66 C65.51,105.8 108.67,76.27 110.51,73.72 C112.36,71.16 118.76,58.92 120.54,51.19 C122.11,44.36 124.1,29.68 120.73,20.77 C118.14,13.91 112.02,7.58 107.85,6.75 C99.6,5.12 94.9,6.72 93.62,7.15 C92.34,7.58 90.15,20.89 84.68,22.91 C76.59,25.89 64.09,29.72 64.09,29.72 Z" fill="#FED5B6"/>
  <path d="M89.19,22.6 C95.01,19.16 95.62,6.63 95.62,6.63 C95.62,6.63 91.16,6.92 86.19,10.95 C81.22,14.98 75.48,22.17 72.65,24.23 C69.82,26.29 64.09,29.72 64.09,29.72 C64.09,29.72 80.22,27.89 89.19,22.6 Z" fill="#DC0D28"/>
  <path d="M95.96,37.25 C99.03,46.69 110.18,49.67 113.35,48.82 C116.52,47.96 118.49,41.02 118.23,30.91 C117.97,20.8 112.83,15.14 108.03,15.49 C103.92,15.78 98.17,19.8 96.03,25.94 C94.85,29.39 94.7,33.37 95.96,37.25 Z" fill="#DC0D28"/>
  <path d="M77.19,34.94 C78.52,36.27 74.88,40.17 76.93,46.25 C78.99,52.33 82.41,54.05 82.16,55.85 C81.91,57.65 67.68,75.64 57.66,79.41 C47.64,83.18 19.83,81.92 14.73,67.76 C10.87,57.05 19.02,47.81 21.16,46.08 C24.41,43.45 27.63,41.44 32.56,40.51 C34.44,40.16 48.5,38.03 56.81,37.17 C65.11,36.31 75.65,33.4 77.19,34.94 Z" fill="#DC0D28"/>
  <path d="M53.54,42.22 C54.24,45.47 44.71,48.65 37.35,54.04 C31.9,58.03 27.75,65.35 23.04,62.44 C18.33,59.53 24.97,48.28 27.5,46.33 C30.49,44.02 52.77,38.62 53.54,42.22 Z" fill="#FF5F5D"/>
  <path d="M79.48,22.78 C80.2,24.38 85.48,20.47 88.05,18.32 C90.13,16.59 92.65,15.02 91.31,12.92 C89.77,10.52 87.03,12.58 84.37,15.4 C82.63,17.25 78.7,21.07 79.48,22.78 Z" fill="#FF5F5D"/>
  <path d="M40.09,89.69 C44.07,90.95 42.68,104.9 45.66,104.77 C49.11,104.63 46.59,92.93 49.76,90.11 C52.93,87.28 56.92,87.74 62.66,84.91 C68.4,82.08 74.71,76.76 79.16,71.53 C83.62,66.3 88.59,60.39 90.9,58.59 C93.21,56.79 105.3,53.19 109.49,56.11 C113.69,59.02 112.15,71.36 112.15,71.36 C112.15,71.36 103.97,86.02 87.52,95.75 C71.07,105.48 61.71,109.34 41.69,107.05 C21.67,104.76 9.66,82.58 9.66,82.58 C9.66,82.58 17.38,85.87 26.11,87.3 C34.84,88.73 36.13,88.44 40.09,89.69 Z" fill="#DC0D28"/>
  <path d="M87.58,29.47 C82.64,32.47 78.24,38.07 80.48,45.58 C82.72,53.09 94.34,57.65 101.99,50.33 C108.77,43.85 107.17,36.29 104.06,32.62 C100.97,28.96 94.02,25.56 87.58,29.47 Z" fill="#FFFFFF"/>
  <path d="M97.94,32.83 C92.7,30.17 87.33,33.21 85.66,36.62 C84,40.03 84.21,44.82 88.17,47.66 C92.41,50.71 98.92,49.18 101.19,44.51 C103.46,39.84 102.1,34.94 97.94,32.83 Z" fill="#FFA8A7"/>
</svg>
